X:1
T:Jeff in Petticoats
M:2/4
L:1/8
K:C
e/2-d/2| cE Gc| Ac Gc| d3/2 c/2 de| d3e/2-d/2| cE Gc| Ac Gc| d3/2 c/2 de|\
 c2 z|c/2-d/2| eB cA| eB cA| AB cd| e3e/2-d/2| cE Gc| Ac Gc| dc de|\
 c3 z| A2 A3/2 A/2| f3 A| A/2 G3/2 G3/2 G/2| e3 e| e d3| d3 e| d4-|\
 d z e3/2- d/2| cE Gc| Ac Gc| dc de| c3 z|
